X:104
T:Bugle Waltz No.1. CJF.104
R:Waltz
S:C.J.Fox MS, 1829/33, Beverley,E.Yorks.
N:This is the first of four Bugle Waltzes. The title is “Four Bugle
N:Waltzes from J. Johnson’s Copy”. The notes * are c3/2 in the MS. – PJH.
B:Kidson Coll.Mitchell Lib.M1805
O:England
A:East Yorkshire
Z:vmp.P J Headford 2000 & 2008
M:3/8
L:1/16
Q:1/8=120
K:D
de|f2f2f2|f2g2e|d2{e}dc{e}dc|d4d2|e2e2e2|a3gfe|d2d2 e>c|d4:|!
|:((3A>df)|a2d2d2|e3A/”*”cf/|a2d2d2|f3A/”*”cf/|\
a2f2f2|g3ab2|a>ba>fg>e|d4:|!
K:A
|:d2|”Minore”e6|d2c2c2|a2g2f2|f4e2|c2dcdf|e2ecdB|A2AcBG|A4:|

